contributed-vectors/mobile_de.svg

<svg xmlns="http://www.w3.org/2000/svg" xmlns:xlink="http://www.w3.org/1999/xlink" width="256" height="256" style="isolation:isolate" viewBox="0 0 192 192"><defs><clipPath id="a"><path d="M0 0h192v192H0z"/></clipPath></defs><g clip-path="url(#a)" style="isolation:isolate"><path d="M29.5 19.5h133c5.519 0 10 4.481 10 10v133c0 5.519-4.481 10-10 10h-133c-5.519 0-10-4.481-10-10v-133c0-5.519 4.481-10 10-10Z" style="stroke:none;fill:#fff;stroke-miterlimit:10"/><image xlink:href="data:image/png;base64,iVBORw0KGgoAAAANSUhEUgAAACkAAACZCAYAAACyqhODAAACG0lEQVR4Xu3csWqTURjG8eft0rG9gUIplDoU7D3YKuJu3LwMBccOQr8vSzt0ddMLEKcOOfESXITszm75PqF9JWoEWwKB/A828HQs6f+c/vLMJ7Tgpy/N88w4ydDDSO0rtL3os7V/H7cP6D43x7qOC4Ue1D582f4/l+xL8yYVp5LuXH7ZYI3P/b1MX9rXKb2tcciqzV+X7MbtE2V+kmJj1WCNv/99yVHzRRGHNQ4gmjEdDx9F5hURq9WIaWnfhfSy1gFEN7pR81URB0SsVmN2ye+K2Kp1ANGNrrRJhGo2fElK15KWpASojjdpSUqA6niTlqQEqI43aUlKgOp4k5akBKiON2lJSoDqeJOWpASojjdpSUqA6niTlqQEqI43aUlKgOp4k5akBKiON2lJSoDqeJOWpASojjdpSUqA6niTlqQEqI43aUlKgOp4k5akBKiON2lJSoDqeJOWpASojjdpSUqA6niTlqQEqI43aUlKgOp4k5akBKiON2lJSoDqeJOWpASojjdpSUqA6niTlqQEqI43aUlKgOp4k5akBKiON2lJSoDqeJOWpASojjdpSUqA6niTnORavC67Du/0Tkv7IaQB9dXU6EQ/bl5kxvsacaoZOTnf7L79mIS0Q0Xpzp/3zJtnyvhIx6ne+rwMP/+P+9K8SsXsCfv7+cb+/KJdOXssbVxK2qO+rlU7C8X6MhzcKJ9G6kjK3f/5nPhPLxULXMsG3IoAAAAASUVORK5CYII=" width="41.31" height="153" x="19.5" y="19.5"/><path fill="#4A4A4A" d="M89.063 74.168h11.088v4.582h.167c2.941-4.085 6.552-5.75 11.423-5.75 5.291 0 9.156 2.585 10.414 7.167h.167c1.764-4.75 5.962-7.167 11.423-7.167C141.389 73 145 77.75 145 86.418V119h-11.59V87.666c0-3.749-1.261-5.834-4.534-5.834-3.694 0-6.048 2.501-6.048 7.667v29.498h-11.59V87.666c0-3.749-1.261-5.834-4.536-5.834-3.695 0-6.045 2.501-6.045 7.667v29.498H89.066V74.168h-.003Z"/></g></svg>

<?xml version="1.0" encoding="UTF-8" standalone="no"?><!-- Generator: Gravit.io --><svg xmlns="http://www.w3.org/2000/svg" xmlns:xlink="http://www.w3.org/1999/xlink" style="isolation:isolate" viewBox="0 0 192 192" width="192pt" height="192pt"><defs><clipPath id="_clipPath_bd7WHf0ny6WTIEwtq8ETdRw0pBxjxHLz"><rect width="192" height="192"/></clipPath></defs><g clip-path="url(#_clipPath_bd7WHf0ny6WTIEwtq8ETdRw0pBxjxHLz)"><g style="isolation:isolate"><path d="M 29.5 19.5 L 162.5 19.5 C 168.019 19.5 172.5 23.981 172.5 29.5 L 172.5 162.5 C 172.5 168.019 168.019 172.5 162.5 172.5 L 29.5 172.5 C 23.981 172.5 19.5 168.019 19.5 162.5 L 19.5 29.5 C 19.5 23.981 23.981 19.5 29.5 19.5 Z" style="stroke:none;fill:#FFFFFF;stroke-miterlimit:10;"/><image xlink:href="data:image/png;base64,iVBORw0KGgoAAAANSUhEUgAAACkAAACZCAYAAACyqhODAAACG0lEQVR4Xu3csWqTURjG8eft0rG9gUIplDoU7D3YKuJu3LwMBccOQr8vSzt0ddMLEKcOOfESXITszm75PqF9JWoEWwKB/A828HQs6f+c/vLMJ7Tgpy/N88w4ydDDSO0rtL3os7V/H7cP6D43x7qOC4Ue1D582f4/l+xL8yYVp5LuXH7ZYI3P/b1MX9rXKb2tcciqzV+X7MbtE2V+kmJj1WCNv/99yVHzRRGHNQ4gmjEdDx9F5hURq9WIaWnfhfSy1gFEN7pR81URB0SsVmN2ye+K2Kp1ANGNrrRJhGo2fElK15KWpASojjdpSUqA6niTlqQEqI43aUlKgOp4k5akBKiON2lJSoDqeJOWpASojjdpSUqA6niTlqQEqI43aUlKgOp4k5akBKiON2lJSoDqeJOWpASojjdpSUqA6niTlqQEqI43aUlKgOp4k5akBKiON2lJSoDqeJOWpASojjdpSUqA6niTlqQEqI43aUlKgOp4k5akBKiON2lJSoDqeJOWpASojjdpSUqA6niTlqQEqI43aUlKgOp4k5akBKiON2lJSoDqeJOWpASojjdpSUqA6niTnORavC67Du/0Tkv7IaQB9dXU6EQ/bl5kxvsacaoZOTnf7L79mIS0Q0Xpzp/3zJtnyvhIx6ne+rwMP/+P+9K8SsXsCfv7+cb+/KJdOXssbVxK2qO+rlU7C8X6MhzcKJ9G6kjK3f/5nPhPLxULXMsG3IoAAAAASUVORK5CYII=" x="19.5" y="19.5" width="41.31" height="153" style=""/><path d=" M 89.063 74.168 L 100.151 74.168 L 100.151 78.75 L 100.318 78.75 C 103.259 74.665 106.87 73 111.741 73 C 117.032 73 120.897 75.585 122.155 80.167 L 122.322 80.167 C 124.086 75.417 128.284 73 133.745 73 C 141.389 73 145 77.75 145 86.418 L 145 119 L 133.41 119 L 133.41 87.666 C 133.41 83.917 132.149 81.832 128.876 81.832 C 125.182 81.832 122.828 84.333 122.828 89.499 L 122.828 118.997 L 111.238 118.997 L 111.238 87.666 C 111.238 83.917 109.977 81.832 106.702 81.832 C 103.007 81.832 100.657 84.333 100.657 89.499 L 100.657 118.997 L 89.066 118.997 L 89.066 74.168 L 89.063 74.168 Z " fill="rgb(74,74,74)"/></g></g></svg>
